**kern	**kern	**dynam
*part1	*part1	*part1
*staff2	*staff1	*
*I"Piano	*	*
*clefF4	*clefG2	*
*k[f#]	*k[f#]	*
=1	=1	=1
*	*^	*
2BBB 2BB	(4g	2A 2c	.
.	8f#L)	.	.
.	8eJ	.	.
*	*clefF4	*	*
=	=	=	=
4BBB 4BB	(8dL	4E 4G	.
.	8cJ)	.	.
4BBB 4BB	(8GL	4E	.
.	8cJ)	.	.
=	=	=	=
2BBB 2BB	2B	2D#X 2F#	.
*	*v	*v	*
*	*clefG2	*
=	=	=
(4EE 4E	(4G 4B	p
8GGL) 8E	8BL) 8e	.
8GGJ 8E	8BJ 8e	.
=	=	=
*	*^	*
4BB 4Fn	(8.dL	4A	.
.	16BJk	.	.
4BB 4F	4d)	4A	.
*	*v	*v	*
=	=	=
(4BB 4Fn	(4G 4d	.
8E-XL)	8GL) 8c 8g	.
8E-J	8GJ 8c 8g	.
=	=	=
*	*^	*
4D 4A-X	(8.fnL	4c	.
.	16dJk	.	.
4D 4A-	4f)	4c	.
*	*v	*v	*
=	=	=
4E 4An	(8.cL 8.e	.
.	16AJk 16c	.
4E 4A	4c) 4e	.
=	=	=
*-	*-	*-
!!!system-decoration: {(s1,s2)}
